assets/icons/24px/stroke/link-24px.svg

<svg width="24" height="24" viewBox="0 0 24 24" fill="none" xmlns="http://www.w3.org/2000/svg">
<path fill-rule="evenodd" clip-rule="evenodd" d="M7 9C5.34315 9 4 10.3431 4 12C4 13.6569 5.34314 15 7 15H9.3C9.85228 15 10.3 15.4477 10.3 16C10.3 16.5523 9.85228 17 9.3 17H7C4.23857 17 2 14.7614 2 12C2 9.23858 4.23857 7 7 7H9.3C9.85228 7 10.3 7.44772 10.3 8C10.3 8.55228 9.85228 9 9.3 9H7ZM13.7 8C13.7 7.44772 14.1477 7 14.7 7H17C19.7614 7 22 9.23858 22 12C22 14.7614 19.7614 17 17 17H14.7C14.1477 17 13.7 16.5523 13.7 16C13.7 15.4477 14.1477 15 14.7 15H17C18.6569 15 20 13.6569 20 12C20 10.3431 18.6569 9 17 9H14.7C14.1477 9 13.7 8.55228 13.7 8Z" fill="white"/>
<path fill-rule="evenodd" clip-rule="evenodd" d="M8 12C8 11.4477 8.44772 11 9 11H15C15.5523 11 16 11.4477 16 12C16 12.5523 15.5523 13 15 13H9C8.44772 13 8 12.5523 8 12Z" fill="white"/>
</svg>

<svg width="24" height="24" fill="none" xmlns="http://www.w3.org/2000/svg"><path fill-rule="evenodd" clip-rule="evenodd" d="M7 9a3 3 0 1 0 0 6h2.3a1 1 0 1 1 0 2H7A5 5 0 0 1 7 7h2.3a1 1 0 0 1 0 2H7zm6.7-1a1 1 0 0 1 1-1H17a5 5 0 0 1 0 10h-2.3a1 1 0 1 1 0-2H17a3 3 0 1 0 0-6h-2.3a1 1 0 0 1-1-1z" fill="#fff"/><path fill-rule="evenodd" clip-rule="evenodd" d="M8 12a1 1 0 0 1 1-1h6a1 1 0 1 1 0 2H9a1 1 0 0 1-1-1z" fill="#fff"/></svg>
